public/img/svg/microsoft.svg

<svg width="264" height="57" viewBox="0 0 264 57" fill="none" xmlns="http://www.w3.org/2000/svg">
<g clip-path="url(#clip0_47_891)">
<path d="M93.06 32.5178L91.4888 36.9598H91.3579C91.096 35.9582 90.6159 34.4339 89.8303 32.6049L81.4071 11.4835H73.1585V45.1471H78.6139V24.3741C78.6139 23.0676 78.6139 21.5869 78.5703 19.7578C78.5267 18.8433 78.4394 18.1465 78.3957 17.6239H78.5267C78.7885 18.9304 79.094 19.8885 79.3122 20.4982L89.4375 45.06H93.2782L103.316 20.2804C103.534 19.7143 103.753 18.582 103.971 17.6239H104.102C103.971 20.1062 103.884 22.3272 103.84 23.6773V45.0164H109.645V11.3964H101.701L93.06 32.5178ZM115.144 20.8901H120.817V45.0164H115.144V20.8901ZM118.024 10.6996C117.064 10.6996 116.278 11.048 115.624 11.6577C114.969 12.2674 114.62 13.0512 114.62 14.0093C114.62 14.9239 114.969 15.7077 115.624 16.3174C116.278 16.9271 117.064 17.232 118.024 17.232C118.984 17.232 119.813 16.8836 120.424 16.3174C121.079 15.7077 121.428 14.9239 121.428 14.0093C121.428 13.0948 121.079 12.3109 120.424 11.6577C119.857 11.048 119.028 10.6996 118.024 10.6996ZM140.937 20.6724C139.89 20.4546 138.798 20.324 137.751 20.324C135.176 20.324 132.819 20.8901 130.855 22.0224C128.891 23.1547 127.32 24.7225 126.316 26.6822C125.269 28.6854 124.745 30.9935 124.745 33.6501C124.745 35.9582 125.269 38.005 126.273 39.8776C127.277 41.7067 128.673 43.1873 130.55 44.189C132.339 45.1906 134.434 45.7132 136.791 45.7132C139.497 45.7132 141.81 45.1471 143.643 44.1019L143.687 44.0583V38.8324L143.468 39.0066C142.639 39.6163 141.679 40.1389 140.719 40.4437C139.715 40.7921 138.798 40.9663 138.013 40.9663C135.743 40.9663 133.954 40.3131 132.688 38.876C131.379 37.4824 130.724 35.5662 130.724 33.171C130.724 30.6887 131.379 28.729 132.732 27.2919C134.085 25.8547 135.874 25.1144 138.056 25.1144C139.889 25.1144 141.766 25.7241 143.468 26.9435L143.687 27.1177V21.5869L143.643 21.5434C142.901 21.2385 142.072 20.8901 140.937 20.6724ZM159.66 20.4982C158.263 20.4982 156.954 20.9337 155.819 21.8482C154.859 22.6321 154.205 23.7644 153.637 25.1144H153.594V20.8901H147.92V45.0164H153.594V32.692C153.594 30.6016 154.03 28.8596 154.99 27.5967C155.95 26.2902 157.172 25.637 158.656 25.637C159.18 25.637 159.704 25.7676 160.358 25.8547C160.969 26.0289 161.406 26.2031 161.711 26.4209L161.93 26.5951V20.9337L161.799 20.8901C161.406 20.6288 160.62 20.4982 159.66 20.4982ZM175.11 20.3675C171.138 20.3675 167.952 21.5434 165.726 23.8515C163.457 26.1596 162.366 29.3387 162.366 33.3452C162.366 37.0904 163.501 40.1389 165.683 42.3599C167.865 44.5374 170.833 45.6697 174.542 45.6697C178.427 45.6697 181.525 44.4938 183.751 42.1422C186.021 39.7905 187.112 36.655 187.112 32.7791C187.112 28.9467 186.064 25.8983 183.926 23.6773C181.875 21.4563 178.863 20.3675 175.11 20.3675ZM179.649 38.9195C178.601 40.2695 176.943 40.9228 174.892 40.9228C172.84 40.9228 171.182 40.2695 170.004 38.8324C168.825 37.4824 168.258 35.5227 168.258 33.0404C168.258 30.471 168.869 28.5112 170.004 27.1177C171.182 25.7241 172.797 25.0273 174.848 25.0273C176.856 25.0273 178.427 25.6805 179.562 27.0306C180.696 28.3806 181.307 30.3403 181.307 32.9097C181.22 35.5227 180.74 37.5695 179.649 38.9195ZM199.768 30.9064C197.979 30.1661 196.844 29.6 196.321 29.1209C195.884 28.6854 195.666 28.0757 195.666 27.2919C195.666 26.6386 195.928 25.9854 196.582 25.5499C197.237 25.1144 197.979 24.8966 199.07 24.8966C200.03 24.8966 201.034 25.0708 201.994 25.3321C202.954 25.5934 203.827 25.9854 204.526 26.508L204.744 26.6822V21.3692L204.613 21.3256C203.958 21.0643 203.085 20.803 202.038 20.5853C200.99 20.4111 200.03 20.324 199.245 20.324C196.539 20.324 194.313 20.9772 192.567 22.4143C190.822 23.7644 189.992 25.5934 189.992 27.7274C189.992 28.8596 190.167 29.8613 190.56 30.6887C190.952 31.5161 191.52 32.3 192.305 32.9533C193.091 33.563 194.226 34.2597 195.797 34.913C197.106 35.4791 198.11 35.9146 198.721 36.263C199.332 36.6114 199.725 37.0033 200.03 37.3082C200.249 37.6566 200.379 38.0921 200.379 38.6582C200.379 40.2695 199.157 41.0534 196.67 41.0534C195.71 41.0534 194.706 40.8792 193.527 40.4873C192.349 40.0953 191.258 39.5292 190.341 38.876L190.123 38.7018V44.2325L190.254 44.2761C191.083 44.668 192.087 44.9293 193.309 45.2342C194.531 45.4519 195.622 45.6261 196.582 45.6261C199.507 45.6261 201.907 44.9729 203.609 43.5357C205.355 42.1422 206.271 40.3566 206.271 38.0485C206.271 36.4372 205.835 35.0001 204.875 33.9113C203.609 32.8662 202.038 31.7774 199.768 30.9064ZM221.241 20.3675C217.27 20.3675 214.084 21.5434 211.858 23.8515C209.632 26.1596 208.497 29.3387 208.497 33.3452C208.497 37.0904 209.632 40.1389 211.814 42.3599C213.996 44.5374 216.964 45.6697 220.674 45.6697C224.558 45.6697 227.657 44.4938 229.883 42.1422C232.152 39.7905 233.243 36.655 233.243 32.7791C233.243 28.9467 232.196 25.8983 230.057 23.6773C228.006 21.4563 224.994 20.3675 221.241 20.3675ZM225.736 38.9195C224.689 40.2695 223.03 40.9228 220.979 40.9228C218.884 40.9228 217.27 40.2695 216.091 38.8324C214.913 37.4824 214.345 35.5227 214.345 33.0404C214.345 30.471 214.956 28.5112 216.091 27.1177C217.27 25.7241 218.884 25.0273 220.936 25.0273C222.9 25.0273 224.514 25.6805 225.649 27.0306C226.784 28.3806 227.395 30.3403 227.395 32.9097C227.395 35.5227 226.827 37.5695 225.736 38.9195ZM263.575 25.5499V20.8901H257.858V13.748L257.683 13.7916L252.272 15.4029L252.141 15.4465V20.8901H243.587V17.8417C243.587 16.4481 243.936 15.3594 244.547 14.6626C245.158 13.9658 246.074 13.6174 247.209 13.6174C247.995 13.6174 248.824 13.7916 249.74 14.1835L249.959 14.3142V9.3931L249.828 9.34956C249.042 9.08826 247.995 8.91406 246.642 8.91406C244.94 8.91406 243.456 9.30601 242.103 9.95924C240.75 10.6996 239.746 11.7012 239.004 13.0512C238.262 14.3577 237.869 15.8384 237.869 17.5368V20.8901H233.898V25.5063H237.869V45.0164H243.587V25.5499H252.141V37.9614C252.141 43.0567 254.541 45.6261 259.342 45.6261C260.128 45.6261 260.957 45.4955 261.742 45.3648C262.572 45.1906 263.183 44.9729 263.532 44.7987L263.575 44.7551V40.0953L263.357 40.2695C263.008 40.4873 262.702 40.6615 262.179 40.7921C261.742 40.9228 261.35 40.9663 261.044 40.9663C259.909 40.9663 259.124 40.705 258.556 40.0518C258.033 39.4421 257.771 38.4405 257.771 36.9598V25.5499H263.575Z" fill="#E3E4E6" fill-opacity="0.55"/>
<path d="M0.0119019 0.160706H26.7654V26.8564H0.0119019V0.160706Z" fill="#E3E4E6" fill-opacity="0.55"/>
<path d="M29.5584 0.160706H56.3119V26.8564H29.5584V0.160706Z" fill="#E3E4E6" fill-opacity="0.55"/>
<path d="M0.0119095 29.6436H26.7654V56.3393H0.0119095V29.6436Z" fill="#E3E4E6" fill-opacity="0.55"/>
<path d="M29.5584 29.6436H56.3119V56.3393H29.5584V29.6436Z" fill="#E3E4E6" fill-opacity="0.55"/>
</g>
<defs>
<clipPath id="clip0_47_891">
<rect width="263.607" height="56.1786" fill="white" transform="translate(0.0119019 0.160706)"/>
</clipPath>
</defs>
</svg>

<svg width="264" height="57" fill="none" xmlns="http://www.w3.org/2000/svg"><g clip-path="url(#a)" fill="#E3E4E6" fill-opacity=".55"><path d="m93.06 32.518-1.571 4.442h-.131c-.262-1.002-.742-2.526-1.528-4.355l-8.423-21.121H73.16v33.663h5.455V24.374c0-1.306 0-2.787-.044-4.616-.043-.915-.13-1.611-.174-2.134h.13a20.47 20.47 0 0 0 .786 2.874L89.438 45.06h3.84l10.038-24.78c.218-.566.437-1.698.655-2.656h.131a316.013 316.013 0 0 0-.262 6.053v21.34h5.805v-33.62h-7.944l-8.641 21.12Zm22.084-11.628h5.673v24.126h-5.673V20.89Zm2.88-10.19c-.96 0-1.746.348-2.4.958-.655.61-1.004 1.393-1.004 2.351a3.06 3.06 0 0 0 1.004 2.308c.654.61 1.44.915 2.4.915s1.789-.348 2.4-.915a3.06 3.06 0 0 0 1.004-2.308c0-.914-.349-1.698-1.004-2.351-.567-.61-1.396-.958-2.4-.958Zm22.913 9.972a15.855 15.855 0 0 0-3.186-.348c-2.575 0-4.932.566-6.896 1.698-1.964 1.133-3.535 2.7-4.539 4.66-1.047 2.003-1.571 4.312-1.571 6.968 0 2.308.524 4.355 1.528 6.228 1.004 1.829 2.4 3.31 4.277 4.311 1.789 1.002 3.884 1.524 6.241 1.524 2.706 0 5.019-.566 6.852-1.611l.044-.044v-5.226l-.219.175c-.829.61-1.789 1.132-2.749 1.437-1.004.348-1.921.522-2.706.522-2.27 0-4.059-.653-5.325-2.09-1.309-1.394-1.964-3.31-1.964-5.705 0-2.482.655-4.442 2.008-5.88 1.353-1.436 3.142-2.177 5.324-2.177 1.833 0 3.71.61 5.412 1.83l.219.174v-5.531l-.044-.044c-.742-.305-1.571-.653-2.706-.87Zm18.723-.174a5.996 5.996 0 0 0-3.841 1.35c-.96.784-1.614 1.916-2.182 3.266h-.043V20.89h-5.674v24.126h5.674V32.692c0-2.09.436-3.832 1.396-5.095.96-1.307 2.182-1.96 3.666-1.96.524 0 1.048.13 1.702.218.611.174 1.048.348 1.353.566l.219.174v-5.661l-.131-.044c-.393-.261-1.179-.392-2.139-.392Zm15.45-.13c-3.972 0-7.158 1.175-9.384 3.484-2.269 2.308-3.36 5.487-3.36 9.493 0 3.745 1.135 6.794 3.317 9.015 2.182 2.177 5.15 3.31 8.859 3.31 3.885 0 6.983-1.176 9.209-3.528 2.27-2.352 3.361-5.487 3.361-9.363 0-3.832-1.048-6.88-3.186-9.102-2.051-2.22-5.063-3.31-8.816-3.31Zm4.539 18.552c-1.048 1.35-2.706 2.003-4.757 2.003-2.052 0-3.71-.654-4.888-2.09-1.179-1.35-1.746-3.31-1.746-5.793 0-2.569.611-4.529 1.746-5.922 1.178-1.394 2.793-2.09 4.844-2.09 2.008 0 3.579.652 4.714 2.003 1.134 1.35 1.745 3.31 1.745 5.879-.087 2.613-.567 4.66-1.658 6.01Zm20.119-8.014c-1.789-.74-2.924-1.306-3.447-1.785-.437-.436-.655-1.045-.655-1.83 0-.652.262-1.306.916-1.741.655-.436 1.397-.653 2.488-.653.96 0 1.964.174 2.924.435s1.833.653 2.532 1.176l.218.174V21.37l-.131-.043c-.655-.262-1.528-.523-2.575-.74-1.048-.175-2.008-.262-2.793-.262-2.706 0-4.932.653-6.678 2.09-1.745 1.35-2.575 3.18-2.575 5.313 0 1.133.175 2.134.568 2.962.392.827.96 1.611 1.745 2.264.786.61 1.921 1.307 3.492 1.96 1.309.566 2.313 1.002 2.924 1.35.611.348 1.004.74 1.309 1.045.219.349.349.784.349 1.35 0 1.611-1.222 2.395-3.709 2.395-.96 0-1.964-.174-3.143-.566a12.168 12.168 0 0 1-3.186-1.611l-.218-.174v5.53l.131.044c.829.392 1.833.653 3.055.958 1.222.218 2.313.392 3.273.392 2.925 0 5.325-.653 7.027-2.09 1.746-1.394 2.662-3.18 2.662-5.488 0-1.61-.436-3.048-1.396-4.137-1.266-1.045-2.837-2.134-5.107-3.005Zm21.473-10.538c-3.971 0-7.157 1.175-9.383 3.484-2.226 2.308-3.361 5.487-3.361 9.493 0 3.745 1.135 6.794 3.317 9.015 2.182 2.177 5.15 3.31 8.86 3.31 3.884 0 6.983-1.176 9.209-3.528 2.269-2.352 3.36-5.487 3.36-9.363 0-3.832-1.047-6.88-3.186-9.102-2.051-2.22-5.063-3.31-8.816-3.31Zm4.495 18.552c-1.047 1.35-2.706 2.003-4.757 2.003-2.095 0-3.709-.654-4.888-2.09-1.178-1.35-1.746-3.31-1.746-5.793 0-2.569.611-4.529 1.746-5.922 1.179-1.394 2.793-2.09 4.845-2.09 1.964 0 3.578.652 4.713 2.003 1.135 1.35 1.746 3.31 1.746 5.879 0 2.613-.568 4.66-1.659 6.01Zm37.839-13.37v-4.66h-5.717v-7.142l-.175.044-5.411 1.61-.131.045v5.443h-8.554v-3.048c0-1.394.349-2.483.96-3.18.611-.696 1.527-1.045 2.662-1.045.786 0 1.615.175 2.531.566l.219.131v-4.92l-.131-.044c-.786-.262-1.833-.436-3.186-.436a10.24 10.24 0 0 0-4.539 1.045 7.563 7.563 0 0 0-3.099 3.092c-.742 1.307-1.135 2.787-1.135 4.486v3.353h-3.971v4.616h3.971v19.51h5.718V25.55h8.554v12.41c0 5.096 2.4 7.665 7.201 7.665.786 0 1.615-.13 2.4-.261.83-.174 1.441-.392 1.79-.566l.043-.044v-4.66l-.218.175c-.349.217-.655.391-1.178.522-.437.13-.829.174-1.135.174-1.135 0-1.92-.261-2.488-.914-.523-.61-.785-1.611-.785-3.092V25.55h5.804ZM.012.16h26.753v26.696H.012V.161Zm29.546 0h26.754v26.696H29.558V.161ZM.012 29.644h26.753v26.695H.012V29.644Zm29.546 0h26.754v26.695H29.558V29.644Z"/></g><defs><clipPath id="a"><path fill="#fff" transform="translate(.012 .16)" d="M0 0h263.607v56.179H0z"/></clipPath></defs></svg>
